X:1
T:Trio a due mandolini e Basso
T:Trio a due mandolini e Basso
T:Anonymous Gimo 359
T:by Mutopia-2013/04/10-334 
T:by Mutopia-2013/04/10-334 
T:by Mutopia-2013/04/10-334 
T:by Mutopia-2013/04/10-334 
T:by Mutopia-2013/04/10-334 
C:Anonymous
C:Gimo 359
Z:by Mutopia-2013/04/10-334
%%score [ 1 ( 2 3 ) 4 ]
L:1/8
Q:1/4=90
M:4/4
K:C
V:1 treble nm="Mandolin"
V:2 treble nm="Mandolin"
V:3 treble 
V:4 bass nm="Violoncello"
V:1
 c2 g/f/e/d/ cCEG | c2 g/f/e/d/ cCEG | cd/e/ de/f/ e/d/c/B/ cG | c/c/d/e/ d/d/e/f/ e/d/c/B/ cg | %4
 af/g/ af ge/f/ ge | fd/e/ fd e/d/c/B/ c/d/e/f/ | gG g/d/b/^g/ ^f/g/a/g/ f/e/d/c/ | %7
 B/G/d/B/ gg ^f/g/a/g/ f/e/d/c/ | B/d/g/d/ B/d/g/d/ c/e/g/e/ c/e/g/e/ | %9
 B/d/g/d/ B/d/g/d/ c/e/g/e/ c/e/g/e/ | ^c/e/a/e/ c/e/a/c/ d/^f/a/f/ d/f/a/f/ | %11
 ^c/e/a/e/ c/e/a/e/ dD ^f/g/g/a/ | acBA B/G/d/B/ g/d/b/g/ | ^f/g/g/a/ a/g/f/e/ dcBA | %14
 B/G/d/B/ e/c/^f/d/ gG/A/4c/4{c} BA | dG g2- g/e/^c/e/ A/g/f/e/ | fF f2- f/d/c/d/ G/f/e/d/ | %17
 e/c/f/d/ g/e/d/c/ B/A/G z2 | c2 g/f/e/d/ cCEG | c2 g/f/e/d/ cCEG | cd/e/ de/f/ e/d/c/B/ cG | %21
 c/G/e/c/ g/e/g/a/ b/a/g/f/ e/d/c/B/ | A/G/F/E/ FA d/A/^f/d/ a/g/f/e/ | dcBA B/A/G z G | %24
 E/c/e/g/ E/c/e/g/ F/A/c/A/ f/c/a/f/ | E/c/e/g/ E/c/e/g/ a/g/f/e/ d/c/B/A/ | %26
 G2 z2 G/f/e/f/ g/f/e/f/ | e/c/B/c/ d/c/B/c/ G/f/e/f/ g/f/e/f/ | e/c/B/c/ d/c/B/c/ de/f/ e/c/d/B/ | %29
 cCEG cCEG | cCEG cEGc | g/f/e/d/ cB cB/A/ G/F/E/D/ | C2 [G,DB]2 [G,Ec]2 !fermata!z2 |] %33
[M:4/4][Q:1/4=70]"^Largo" g2 f/e/d/c/ ag z/ g/e/c/ | de/f/ Gf fe z/ g/e/c/ | %35
 de/f/ Gf (3e/d/c/c z2 | e/c/g z e d/B/g z d | c/A/a z c B/G/c/A/ d2- | dc/d/ eG ^F>G A/B/c/d/ | %39
 e^f/g/ dc B/A/B/c/ d/B/e/G/ | ^F/e/e/d/ d/c/c/B/ B/g/g/^f/ f/e/e/d/ | %41
 ^c =c2 B/A/ (6:4:6B/g/^f/e/d/c/ BA | G2 z2 d2 c/B/A/G/ |{cd} ed z/ d/B/G/ AB/c/ BA | %44
{A} B2 z/ d/B/G/ AB/c/ Dc | B/A/G z2 g2 f/e/d/c/ |[M:2/4] ag z/ g/e/c/ | %47
[M:4/4] de/f/ Gf fe z/ g/e/c/ | de/f/ Df e/d/c z G | c/G/e/c/ g/e/c/_B/ BA z A | %50
 d/A/^f/d/ a/f/d/c/ c/G/ =f2 e/d/ | e/g/e/c/ dc/B/ cEFG | c2 z2 !fermata!z4 |] %53
[M:3/8][Q:1/4=90]"^Allegro" c3 | d3 | e/f/g/a/g/e/ | def | e/f/g/a/g/e/ | def | e/d/c z | %60
 e/c/B/c/e | d/B/A/B/d | e/c/a/^f/d/c/ | B/g/^f/g/B/g/ | c/g/^f/g/c/g/ | B/g/^f/g/B/g/ | %66
 c/g/^f/g/c/g/ | ^c/a/^g/a/c/a/ | d/a/^g/a/d/a/ | ^c/a/^g/a/c/a/ | ^f/e/d/e/f/g/ | a/^f/d/=c/A/c/ | %72
 Bcd | e^fg | (3e/d/c/ BA | G3 | c3 | d3 | e/f/g/a/g/e/ | def | e/f/g/a/g/e/ | def | e/c/B/c/E/c/ | %83
 F/c/B/c/^F/c/ | G/A/B/c/d/e/ | fed | e/g/f/e/d/c/ | dcB | [G,Ec]2 !fermata!z |] %89
V:2
 c2 g/f/e/d/ cCEG | c2 g/f/e/d/ cCEG | cd/e/ de/f/ e/d/c/B/ cG | c/c/d/e/ d/d/e/f/ e/d/c/B/ ce | %4
 fd/e/ fd ec/d/ ge | fd/e/ fd e/d/c/B/ c/d/e/f/ | gG g/d/b/^g/ ^f/g/a/g/ ^f/e/d/c/ | %7
 B/G/d/B/ gg ^f/g/a/g/ ^f/e/d/c/ | B g2 B c g2 c | B g2 B c g2 e | ^c a2 c d a2 d | %11
 ^c a2 c dD ^f/g/g/a/ | aAG^F GBdg | ^f/g/g/a/ a/g/f/e/ dAG^F | GBc^f gG/A/ G^F | %15
 dG g2- g/e/^c/e/ A/e/d/^c/ | dF f2- f/d/c/d/ G/d/c/B/ | =cd g/e/d/c/ B/A/G z2 | c2 g/f/e/d/ cCEG | %19
 c2 g/f/e/d/ cCEG | cd/e/ de/f/ e/d/c/B/ cG | c/G/e/c/ g/e/g/a/ b/a/g/f/ e/d/c/B/ | %22
 A/G/F/E/ FA d/A/^f/d/ a/g/^f/e/ | dcBA G/D/B, G,2 | E c2 E FAcf | e c2 g a/g/f/e/ d/c/B/A/ | %26
 G2 z2 G/d/e/f/ e/d/c/B/ | cB/c/ d/F/G/A/ G/d/e/f/ e/d/c/B/ | cB/c/ d/F/G/A/ Ge/f/ e/c/d/B/ | %29
 c2 z2 cCEG | cCEG cEGc | g/f/e/d/ cB cB/A/ G/F/E/D/ | C2 [G,DB]2 [G,Ec]2 !fermata!z2 |] %33
[M:4/4] g2 f/e/d/c/ fe z/ c/e/c/ | Bc/d/ Gd dc z/ c/e/c/ | Bc/d/ Gd cG/E/ C2 | %36
 e/c/c/c/ c/c/c/c/ d/B/B/B/ B/B/B/B/ | c/A/A/A/ c/c/c/c/ B/G/d/B/ dB | GA/B/ CG F>G A/B/c/d/ | %39
 cd/e/ dc B/A/B/c/ BG | ^F/g/g/^f/ f/e/e/d/ d/e/e/d/ d/c/c/B/ | %41
 ^c =c2 B/A/ (6:4:6B/d/c/B/A/G/ G^F | G2 z2 d2 c/B/A/G/ |{AB} cB z/ d/B/G/ AB/c/ BA | %44
{A} B2 z/ d/B/G/ DG/A/ DA | GD/B,/ G,2 g2 f/e/d/c/ |[M:2/4] fe z/ c/e/c/ | %47
[M:4/4] Bc/d/ Gd dc z/ c/e/c/ | Bc/d/ Gd c2 z G | cccG GF z A | BdfG c/B/ f2 e/d/ | %51
 e/g/e/c/ dG cEFG | c2 z2 !fermata!z4 |][M:3/8] c3 | B3 | c/d/e/f/e/c/ | Bcd | c/d/e/f/e/c/ | Bcd | %59
 e/d/c z | e/c/B/c/ c | d/B/A/B/ B | c/A/a/^f/d/c/ | Bg z | cg z | Bg z | cC z | ^ca z | da z | %69
 ^ca z | ^f/e/d/e/f/g/ | a/^f/d/=c/A/c/ | BAB | cde | (3c/B/A/ G^F | G3 | c3 | B3 | c/d/e/f/e/c/ | %79
 Bcd | c/d/e/f/e/c/ | Bcd | c2 E | FA^F | G/A/B/c/B/c/ | dcB | c/g/f/e/d/c/ | dcB | %88
 [G,Ec]2 !fermata!z |] %89
V:3
 x8 | x8 | x8 | x8 | x8 | x8 | x8 | x8 | x8 | x8 | x8 | x8 | x8 | x8 | x8 | x8 | x6 B/ x3/2 | x8 | %18
 x8 | x8 | x8 | x8 | x8 | x8 | x8 | x8 | x8 | x8 | x8 | x8 | x8 | x8 | x8 |][M:4/4] x8 | x8 | x8 | %36
 x8 | x8 | x8 | x8 | x8 | x8 | x8 | x8 | x8 | x8 |[M:2/4] x4 |[M:4/4] x8 | x8 | x8 | x8 | x8 | %52
 x8 |][M:3/8] x3 | x3 | x3 | x3 | x3 | x3 | x3 | x3 | x3 | x3 | x3 | x3 | x3 | x3 | x3 | x3 | x3 | %70
 x3 | x3 | x3 | x3 | x3 | x3 | x3 | x3 | x3 | x3 | x3 | x3 | x3 | x3 | x3 | x3 | x3 | x3 | x3 |] %89
V:4
 C,2 z2 z C,E,G, | C,2 z2 z C,E,G, | E,C, B,,G,, C,2 z2 | z C,B,,G,, C,C, F,F, | %4
 F,2 z F, E,2 z E, | D,D, G,,G,, C,C, C,C, | C,2 z ^C, D,D, D,D, | G,G, B,,^C, D,D, D,D, | %8
 G,G, B,G, z C,E,C, | z G,,B,,G,, z C,E,C, | z A,,^C,A,, z D,^F,D, | z A,,^C,A,, D,2 z2 | %12
 z A,,A,,^F, G,G,G,G, | D,2 z2 z A,G,^F, | G,B,,C,A,, B,,C,D,D,, | G,,2 z _B,, A,,A,, ^C,A,, | %16
 D,2 z A,, G,,G,,B,,G,, | C,F, G,G,, C,>A, G,/F,/E,/D,/ | C,2 z2 z C,E,G, | C,2 z2 z C,E,G, | %20
 E,C, B,,G,, C,2 z2 | E,2 z2 E,E, E,E, | F,2 z2 ^F,F, F,F, | G,2 z ^F, G,G,, C,2 | %24
 C,2 C,2 F,F, F,F, | E,2 E,2 E,2 z ^F, | G,G,, G,,2 B,,2 z B,, | C,2 z2 z B,, z B,, | %28
 C,2 z2 F,F, G,G,, | C,2 z2 C,2 z E, | C,2 z2 C,2 z E, | F,F, G,G,, C,2 z2 | %32
 G,2 G,,2 C,2 !fermata!z2 |][M:4/4] C,C,C,C, C,C,E,E, | F,2 z G, C,C,E,E, | %35
 F,2 z G, C,2 G,/F,/E,/D,/ | C,C,C,C, B,,B,,B,,B,, | A,,A,,^F,F, G,2 z B,, | C,2 z ^C, D,2 z2 | %39
 C,C,^F,F, G,G,,B,,^C, | D,2 z ^F, G,2 z2 | z A,^G,E, =G,C,D,D,, | %42
 G,,2 D,/C,/B,,/A,,/ G,,G,,G,,G,, | G,,G,,B,,B,, C,2 z D, | G,G,B,,B,, C,2 z D, | %45
 G,,2 G,/F,/E,/D,/ C,C,C,C, |[M:2/4] C,C, E,E, |[M:4/4] C,2 z G, C,C,C,C, | E,2 z E, F,F,F,E, | %49
 D,2 z ^F, G,,G,,B,,A,, | B,,2 z ^F, G,G,G,,G,, | C,E,F,G, A,E,F,G, | C,2 z2 !fermata!z4 |] %53
[M:3/8] z E,C, | D,F,E, | C,E,C, | B,,A,,G,, | C,E,C, | B,,A,,G,, | C,E,G, | C,C,C, | B,,B,,B,, | %62
 A,,^F,G, | G,2 z | C,2 z | G,2 z | C,2 z | A,,2 z | D,2 z | A,,2 z | D,2 z | ^F,F,F, | G,,A,,B,, | %73
 C,A,,B,, | C,D,D,, | G,,G,/F,/E,/D,/ | C,E,C, | B,,A,,G,, | C,E,C, | B,,A,,G,, | C,E,C, | %81
 B,,A,,G,, | C,2 E, | F,2 ^F, | G,2 z | G,,A,,B,, | C,D,E, | F,G,G,, | C,2 !fermata!z |] %89

